!!!COM: Schubert, Franz
!!!CNT: Deutscher
!!!TXO: Deutsch
!!!OTL: "Der Neugierige"
!!!OPR: Die schoene Muellerin
!!!LYR: Mu2ller, Wilhelm
!!!OPS: Opus 25
!!!ONM: No. 6
!!!ODT: 1823/
!!NB: Vocal melody only encoded.
**kern	**silbe
*clefG2	*
*k[f#c#g#d#a#]	*
*M2/4	*
*MM[langsam]	*
=4	=4
4r	.
8r	.
{8f#	{Ich
=5	=5
8.b	fra-
16a#	-ge
8.b	kei-
16dd#	-ne
=6	=6
8b#	Blu-
8cc#}	-me}
8r	.
{8cc#	{ich
=7	=7
8.ff#	fra-
16ee	-ge
8.dd#	kei-
16cc#	-nen
=8	=8
8cc#	Stern;
8dd#}	|}
8r	.
{8dd#	{sie
=9	=9
8dd#	ko2n-
16dd#	-nen
16dd#	mir
8ee	al-
16dd#	-le
16cc#	nicht
=10	=10
8cc#	sa-
8b#}	-gen,}
8r	.
{8b#	{was
=11	=11
8cc#	ich
16ee#	er-
16dd#	|
8.cc#	-fu2hr'
16e#	so
=12	=12
4f#}	gern.}
8r	.
{8f#	{Ich
=13	=13
8.b	bin
16a#	ja
8.b	auch
16dd#	kein
=14	=14
8b#	Ga2rt-
8cc#}	-ner}
8r	.
{8cc#	{die
=15	=15
8.ff#	Ster-
16ee	-ne
8.dd#	steh'n
16cc#	zu
=16	=16
8cc#	hoch;
8dd#}	|}
8r	.
{8dd#	{mein
=17	=17
16dd#	Ba2ch-
16e#	|
8e#	-lein
16e#	will
16dd#	|
8d#	ich
=18	=18
8b#	fra-
8cc#}	-gen,}
8r	.
{16cc#	{ob
16a#	|
=19	=19
16g#	mich
16ff#	|
16ee#	mein
16dd#	|
16cc#	Herz
16a#	|
16b	be-
16g#	|
=20	=20
4f#}	-log.}
4r	.
=22	=22
4r	.
8r	.
{8f#	{O
=23	=23
*M3/4	*
4.b	Ba2ch-
8b	-lein
8a#	mei-
8b	-ner
=24	=24
8.cc#	Lei-
16a#	|
4b}	-be,}
8r	.
{8cc#	{wie
=25	=25
4.ddn	bist
8ddn	du
12ff#	heut'
12ee	|
12ddn	so
=26	=26
2cc#}	stumm!}
8r	.
{8f#	{Will
=27	=27
4.b	ja
8b	nur
8dd#	Ei-
8dd#	-nes
=28	=28
8.cc#	wis-
16a#	|
4b}	-sen,}
{4ff#	{ein
=29	=29
8ee	Wo2rt-
16dd#	-chen
16cc#	|
4a#	um
8.cc#	und
16b	|
=30	=30
4b}	um,}
4r	.
{4ff#	{ein
=31	=31
16ff#	Wo2rt-
16ee	|
16dd#	-chen
16cc#	|
4a#	um
8.cc#	und
16b	|
=32	=32
4b}	um.}
4r	.
4r	.
=33	=33
4r	.
{4ff#	{Ja,
16cc#	heisst
16cc#	das
16dd#	ei-
16cc#	-ne
=34	=34
16b	Wo2rt-
16a#	|
8a#}	-chen}
8.r	.
{16cc#	{das
16cc#	an-
16cc#	-dre
16cc#	heis-
16cc#	-set
=35	=35
4ddn}	Nein,}
4r	.
8.r	.
{16ee	{die
=36	=36
8ddn	bei-
8ee	-den
8ffn	Wo2rt-
8ee	-chen
8dd	schlie-
16ee}	-ssen}
{16ee	{die
=37	=37
8dd	gan-
8ccn	-ze
4b	Welt
4an	mir
=38	=38
4gn}	ein,}
4r	.
8.r	.
{16ee	{die
=39	=39
8ddn	bei-
8ee	-den
16ggn	Wo2rt-
16ffn	|
8ee	-chen
8ddn	schlie-
16ff#}	-ssen}
{16ee	{die
=40	=40
8ddn	gan-
8ccn	-ze
4b	Welt
4an	mir
=41	=41
4gn}	ein.}
4r	.
4r	.
=42	=42
4r	.
4r	.
8r	.
{8f#	{O
=43	=43
4.b	Ba2ch-
8b	-lein
8a#	mei-
8b	-ner
=44	=44
8.cc#	Lie-
16a#	|
4b}	-be,}
8r	.
{8cc#	{was
=45	=45
4.ddn	bist
8ddn	du
12ff#	wun-
12ee	|
12ddn	-der-
=46	=46
2cc#}	-lich!}
8r	.
{8f#	{Will's
=47	=47
4.b	ja
8b	nicht
8dd#	wei-
8dd#	-ter
=48	=48
8.cc#	sa-
16a#	|
4b}	-gen,}
{4b#	{sag'
=49	=49
16cc#	Ba2ch-
16ee	|
16dd#	-lein,
16cc#	|
(4b	liebt
8.ff#)	|
16ee	sie
=50	=50
2dd#}	mich?}
{4b#	{sag'
=51	=51
16cc#	Ba2ch-
16ee	|
16dd#	-lein
16cc#	|
(4a#	liebt
8.cc#)	|
16b	sie
=52	=52
4b}	mich?}
4r	.
4r	.
*-	*-
